X:1
T:The Cameronian
R:reel
M:4/4
L:1/8
K:D
|A2FA DAFA|GE~E2 GBdB|A2FA DAFA|GBAG FDDB|
|AF~F2 DF~F2|GE~E2 GBdB|A2FA ADFA|BdAG FDDB|
|A2FA DAFA|GE~E2 GBdB|A2FA DAFA|GBAG FDDB|
|AFdF eFdF|GE~E2 GBdB|A2FA ADFA|BdAG FDDB|
|:Addc d2dA|(3Bcd ef gfed|(3cBA eA fAeA|(3Bcd ef gfeg|
|faeg (3fga eg|fd(3fge defg|af(3gfe fdec|dBAG FDDB:|